X: 262
T: Kavadarsko Oro
O: Macedonia
F: http://www.youtube.com/watch?v=alX0aUDn2l0
M: 4/4
L: 1/8
Q: 1/4=180
K: D=F_B
P:A
F2 EF A,2 D2|F2 EF A,2 D2|F2 EF A^GFE|DE FG A2 z2|
F2 EF A,2 D2|F2 EF A,2 D2|F2 EF A^GFE|D2 A2 D2 z2:|
P:B
A,2 A2 ^G2 A2|B4 A4|GFEG F2z2|EDCE DEF2|
A,2 A2 ^G2 A2|BAGB AGFA|GFEG FEDF|EDCE D4:|
P:C
A,4 D2 z2|ABAG FED2|GFED F2z2|EDCE A2z2|
A,4 D2 z2|ABAG FED2|GFED FED2|EDCE D2z2:|
P:D
K:C
CB,C2 FEF2|AGA2 Ac2z|cBdc _BAG2|ABAG FED2|
CB,C2 FEF2|AGA2 Ac2z|cBdc _BAG2|GFEG F2z2:|



